Adwaita++/places/symbolic/folder-music-symbolic.svg

<svg height="16" width="16" xmlns="http://www.w3.org/2000/svg">
  <g fill="#474747">
    <path d="m3.5 8a3.515 3.515 0 0 0 -3.5 3.5c0 1.921 1.579 3.5 3.5 3.5s3.5-1.579 3.5-3.5-1.579-3.5-3.5-3.5zm0 2c.84 0 1.5.66 1.5 1.5s-.66 1.5-1.5 1.5-1.5-.66-1.5-1.5.66-1.5 1.5-1.5zm8-2a3.515 3.515 0 0 0 -3.5 3.5c0 1.921 1.579 3.5 3.5 3.5s3.5-1.579 3.5-3.5-1.579-3.5-3.5-3.5zm0 2c.84 0 1.5.66 1.5 1.5s-.66 1.5-1.5 1.5-1.5-.66-1.5-1.5.66-1.5 1.5-1.5z"/>
    <path d="m5 2v9.5h2v-7.5h6v7.5h2v-9.5z"/>
  </g>
</svg>

<svg xmlns="http://www.w3.org/2000/svg" width="16" height="16">
    <g color="#000" font-weight="400" font-family="sans-serif" white-space="normal" fill="#474747">
        <path d="M3.5 8A3.515 3.515 0 0 0 0 11.5C0 13.421 1.579 15 3.5 15S7 13.421 7 11.5 5.421 8 3.5 8zm0 2c.84 0 1.5.66 1.5 1.5S4.34 13 3.5 13 2 12.34 2 11.5 2.66 10 3.5 10zM11.5 8A3.515 3.515 0 0 0 8 11.5c0 1.921 1.579 3.5 3.5 3.5s3.5-1.579 3.5-3.5S13.421 8 11.5 8zm0 2c.84 0 1.5.66 1.5 1.5s-.66 1.5-1.5 1.5-1.5-.66-1.5-1.5.66-1.5 1.5-1.5z" style="line-height:normal;font-variant-ligatures:normal;font-variant-position:normal;font-variant-caps:normal;font-variant-numeric:normal;font-variant-alternates:normal;font-feature-settings:normal;text-indent:0;text-align:start;text-decoration-line:none;text-decoration-style:solid;text-decoration-color:#000;text-transform:none;text-orientation:mixed;shape-padding:0;isolation:auto;mix-blend-mode:normal;marker:none" overflow="visible"/>
        <path d="M5 2v9.5h2V4h6v7.5h2V2z" style="line-height:normal;font-variant-ligatures:normal;font-variant-position:normal;font-variant-caps:normal;font-variant-numeric:normal;font-variant-alternates:normal;font-feature-settings:normal;text-indent:0;text-align:start;text-decoration-line:none;text-decoration-style:solid;text-decoration-color:#000;text-transform:none;text-orientation:mixed;shape-padding:0;isolation:auto;mix-blend-mode:normal;marker:none" overflow="visible"/>
    </g>
</svg>
